X:1
T:Sheebeg and Sheemore
C:O'Carolan
R:Air
M:3/4
L:1/4
K:D
d/e/|:\
"D"f>e d|d>ed|"G"B2A|"D"F2A|"G"B/A/ B/c/d|
"A"e2 d/e/|"D"f2e|d2f|"G"B2e|"D"A2d|F2 "A"E|
"D"D2 f|"G"B2 e|"D"A2d/c/|d2c|d2:|
|:d/e/|\
"D"f>ed|e/d/ e/f/a|"Bm"b2a|"D"f>ed|"A"e2 a|"D"f2e|
"Bm"d2B|"A"A2B/A/|"D"F2 "A"E|"D"D2 f|"G"B2 e|"D"A2a|
"G"b/a/ g/f/ e/d/|"A"e f/g/ d/c/|"D"d2c|d2:|
